X: 29948
T: O, Teannaibh Dlùth Togaibh Fonn
R: waltz
M: 3/4
K: Gmajor
G,2 B,2 C2|D6|C2 B,2 A,2|G,6|
G,2 B,2 D2|G6|(A2 G2) F2|D2 D4|
z2 (EF) G2|E2 C4|(DE) G2 D2|D6|
G,2 B,2 C2|D6|C2 B,2 A,2|G,6:|

